X: 24583
T: Lynch's
R: barndance
M: 4/4
K: Dmajor
|:D2 d2 D2 d2|B>dc>B A3 F|G>FG>B A>FD>F|E2 e2 (3cBA (3GFE|
D2 d2 D2 d2|B>dc>B A3 F|G>FG>B A>FD>F|1 E>GF>E D>GF>E:|2 E>GF>E D2 a>g||
|:(3fgf d>f (3efe B>c|(3dcd (3fdB A3 F|G>Ac>e g>ec>B|A2 b2 a3 g|
(3fgf d>f (3efe B>c|(3dcd (3fdB A3 F|G>Ac>e g>eB>c|1 (3efe d2 d2 a>g:|2 e2 d2 d4||

